X: 3
T: The Sandymount
R: reel
M: 4/4
L: 1/8
K: Ador
EAAG A2 (3^cBA|GEDG EGDG|EAAG A2 (3B^cd|egfa gedg|
eAAG A2 (3^cBA|GE~E2 GEDG|EAAG A2 (3B^cd|egfa gedg||
ea~a2 a2ba|ge~e2 gedg|eaag ~a2ga|bg~g2 baag|
eaag a2 ba|gedB dega|(3bag af g2fg|e2ed (3efg ag||


Tune 176	Setting 25476

